X: 37790
T: Songdogs
R: reel
M: 4/4
K: Aminor
|:Aedc A2G/A/B|Aded cBG2|Aedc A2G/A/B|cABc A3B:|
|:BcBA GBEG|c/B/Ade B3B|BcBA GBEG|c/B/ABc A3B:|

